static/assets/img/icons/interface/check-circle.svg

<svg fill="none" height="24" viewBox="0 0 24 24" width="24" xmlns="http://www.w3.org/2000/svg"><g fill="#212529"><circle cx="12" cy="12" r="9"/><path d="m15.0603 8.70555c.1908-.24547.5273-.27532.7518-.06667.2244.20865.2517.57679.0609.82226l-4.5333 5.83336c-.1938.2493-.5371.2755-.7607.0581l-2.39999-2.3333c-.22015-.214-.23998-.5827-.04429-.8235s.53279-.2625.75294-.0485l1.99244 1.9371z"/></g></svg>

<svg width="24" height="24" viewBox="0 0 24 24" fill="none" xmlns="http://www.w3.org/2000/svg">
<circle cx="12" cy="12" r="9" fill="#212529"/>
<path d="M15.0603 8.70555C15.2511 8.46008 15.5876 8.43023 15.8121 8.63888C16.0365 8.84753 16.0638 9.21567 15.873 9.46114L11.3397 15.2945C11.1459 15.5438 10.8026 15.57 10.579 15.3526L8.17901 13.0193C7.95886 12.8053 7.93903 12.4366 8.13472 12.1958C8.33041 11.955 8.66751 11.9333 8.88766 12.1473L10.8801 14.0844L15.0603 8.70555Z" fill="#212529"/>
</svg>
